X:1
T:Sarah Jane
M:6/8
L:1/4
K:D
 A,/2| D D/2 E G/2| F/2E/2F/2 D A,/2| D D/2 E G/2| F3/2 D A,/2| D D/2 E E/2|\
 F F/2 A3/2| B/2 E E G/2| F3/2 D3/2| B/2 E E G/2| F3/2 D3/2|

